X:14103
T:Reel de Cabano
C:Joseph Allard
M:2/4
L:1/16
K:G
BGdG BGGd|BGdG BGGB|A=Fc=F A=F=Fc|A=Fc=F A=F=Fc|!
BGdG BGGd|BGdG A=F=F2|GFGA Bcde|fdAc BGG2:|!
|:gfga gede|=fe=fg a=fd=f|g=fga gede|fdAd BGG2|!
gfga gede|=fe=fg a=fde|=fge=f decd|BdcA BGG2:|!
